symbols/web/send_to_mobile/materialsymbolsoutlined/send_to_mobile_wght700grad200_40px.svg

<svg xmlns="http://www.w3.org/2000/svg" height="40" width="40"><path d="M28.5 26.458 26.542 24.5l3.125-3.125h-9.709v-2.833h9.709l-3.125-3.125 1.958-1.959 6.5 6.5Zm-16.917 13q-1.791 0-3.104-1.291-1.312-1.292-1.312-3.125V4.958q0-1.833 1.312-3.125Q9.792.542 11.583.542h16.834q1.791 0 3.104 1.291 1.312 1.292 1.312 3.125v5.709h-4.416V9.125H11.583v21.75h16.834v-1.542h4.416v5.709q0 1.833-1.312 3.125-1.313 1.291-3.104 1.291Zm0-5.75v1.334h16.834v-1.334Zm0-27.416h16.834V4.958H11.583Zm0-1.334v1.334-1.334Zm0 30.084v-1.334 1.334Z"/></svg>

<svg xmlns="http://www.w3.org/2000/svg" height="40" width="40"><path d="M28.5 26.458 26.542 24.5 29.667 21.375H19.958V18.542H29.667L26.542 15.417L28.5 13.458L35 19.958ZM11.583 39.458Q9.792 39.458 8.479 38.167Q7.167 36.875 7.167 35.042V4.958Q7.167 3.125 8.479 1.833Q9.792 0.542 11.583 0.542H28.417Q30.208 0.542 31.521 1.833Q32.833 3.125 32.833 4.958V10.667H28.417V9.125H11.583V30.875H28.417V29.333H32.833V35.042Q32.833 36.875 31.521 38.167Q30.208 39.458 28.417 39.458ZM11.583 33.708V35.042Q11.583 35.042 11.583 35.042Q11.583 35.042 11.583 35.042H28.417Q28.417 35.042 28.417 35.042Q28.417 35.042 28.417 35.042V33.708ZM11.583 6.292H28.417V4.958Q28.417 4.958 28.417 4.958Q28.417 4.958 28.417 4.958H11.583Q11.583 4.958 11.583 4.958Q11.583 4.958 11.583 4.958ZM11.583 4.958Q11.583 4.958 11.583 4.958Q11.583 4.958 11.583 4.958V6.292V4.958Q11.583 4.958 11.583 4.958Q11.583 4.958 11.583 4.958ZM11.583 35.042Q11.583 35.042 11.583 35.042Q11.583 35.042 11.583 35.042V33.708V35.042Q11.583 35.042 11.583 35.042Q11.583 35.042 11.583 35.042Z"/></svg>
